public/editor-src/editor/icons/editor/leadific.svg

<svg id="leadific" viewBox="0 0 16 16"><g stroke="none" stroke-width="1" fill="currentColor" fill-rule="evenodd"><path d="M7.4176631,15.981313 C5.97105098,15.8839862 4.57814139,15.3822497 3.36647787,14.5180548 C3.12649465,14.3468939 3.08957416,14.3082988 3.07614852,14.2092939 C3.06272289,14.110289 3.1063562,14.0347769 3.28088945,13.8535476 C3.9236417,13.1856844 4.8919656,12.579909 5.84015104,12.2493334 C6.84539543,11.9002994 7.81204112,11.8080067 8.95322005,11.955675 C10.3947976,12.1402603 11.7541431,12.8198699 12.7728131,13.8636159 C12.9641284,14.0582695 12.9893014,14.0935086 12.9893014,14.1639866 C12.9893014,14.2680256 12.7778477,14.4509329 12.2928467,14.7613718 C11.5930355,15.2094107 10.7723935,15.5618009 9.95342983,15.7631667 C9.13782253,15.9645325 8.27858192,16.0383666 7.4176631,15.981313 Z M0.689741976,11.264319 C0.681350954,11.2425044 0.654499685,11.1770605 0.629326621,11.1166508 C0.204740927,10.0880072 0.00167820432,9.0828562 0,8.00387111 C0,6.41140323 0.448080554,4.91290605 1.31739039,3.59899419 C1.62617999,3.13081871 1.88797986,2.80527733 2.25718481,2.4260384 C3.16173694,1.49639961 4.22571848,0.825180275 5.46591147,0.40399014 C6.01132788,0.219404822 6.50136354,0.113687776 7.24984267,0.0213951164 C7.48479127,-0.00713170548 8.50178309,-0.00713170548 8.75183554,0.0213951164 C9.62785819,0.123756066 10.23369,0.269746272 10.9418922,0.548302298 C11.0576883,0.593609603 11.178519,0.643951054 11.2104049,0.65737544 C12.131739,1.07520948 12.8802182,1.57862398 13.5699601,2.24480918 C14.8621775,3.4915991 15.687854,5.1159499 15.9328718,6.88796896 C15.9899308,7.30076885 16,7.47864198 16,8.02065159 C15.9983218,8.47708074 15.991609,8.62810509 15.9614013,8.88149039 C15.8892385,9.49397804 15.778477,10.0024267 15.5989092,10.5377241 C15.4780785,10.8951484 15.3136144,11.2928459 15.285085,11.2928459 C15.2733375,11.2928459 14.8672121,10.7004948 14.382211,9.97557792 C12.2223621,6.74533485 9.75372352,3.05362848 8.99853157,1.92094585 C8.46989721,1.13058507 8.1543948,0.674155924 8.12083071,0.648985199 C8.05370254,0.603677893 7.96475771,0.600321797 7.89259492,0.645629102 C7.85399622,0.669121779 7.66603734,0.937609515 7.23138242,1.58869227 C6.89741976,2.09042873 6.15900986,3.19458454 5.59009859,4.04367701 C4.13341724,6.22010571 2.05412209,9.3362415 1.34591987,10.3984461 C1.01699182,10.8934704 0.736731697,11.2995581 0.724984267,11.2995581 C0.713236837,11.3012361 0.698132998,11.2844556 0.689741976,11.264319 Z" id="Combined-Shape" fill="currentColor" fill-rule="nonzero"></path></g></svg>

<svg viewBox="0 0 16 16"><path fill="currentColor" fill-rule="nonzero" d="M7.418 15.981a7.87 7.87 0 0 1-4.052-1.463c-.24-.171-.276-.21-.29-.309-.013-.099.03-.174.205-.355.643-.668 1.611-1.274 2.56-1.605 1.004-.349 1.971-.441 3.112-.293 1.442.184 2.801.864 3.82 1.908.191.194.216.23.216.3 0 .104-.211.287-.696.597-.7.448-1.52.8-2.34 1.002a8.31 8.31 0 0 1-2.535.218ZM.69 11.264a8.884 8.884 0 0 0-.06-.147A7.999 7.999 0 0 1 0 8.004C0 6.41.448 4.913 1.317 3.599c.31-.468.571-.794.94-1.173A7.986 7.986 0 0 1 5.466.404C6.01.219 6.5.114 7.25.021a13.19 13.19 0 0 1 1.502 0c.876.103 1.482.249 2.19.527a8.1 8.1 0 0 1 2.628 1.697 7.943 7.943 0 0 1 2.363 4.643c.057.413.067.59.067 1.133a6.388 6.388 0 0 1-.039.86 7.91 7.91 0 0 1-.362 1.657c-.12.357-.285.755-.314.755-.012 0-.418-.593-.903-1.317C12.222 6.746 9.754 3.054 9 1.92 8.469 1.13 8.154.674 8.12.649a.209.209 0 0 0-.228-.003c-.039.023-.227.292-.662.943l-1.64 2.455a5325.685 5325.685 0 0 0-4.245 6.354c-.329.495-.61.902-.621.902-.012.001-.027-.016-.035-.036Z"/></svg>
